icons/lines/group-two.svg

<svg xmlns="http://www.w3.org/2000/svg" width="24" height="24" viewBox="0 0 24 24" fill="none" stroke="currentColor" stroke-width="2" stroke-linecap="round" stroke-linejoin="round" >
  <path d="M7.01012 18L3.00012 13.99C1.66012 12.65 1.66012 11.32 3.00012 9.97998L9.68012 3.29999L17.0301 10.65C17.4001 11.02 17.4001 11.62 17.0301 11.99L11.0101 18.01C9.69012 19.33 8.35012 19.33 7.01012 18Z" stroke-miterlimit="10"/>
  <path d="M8.3501 1.95001L9.6901 3.28998" stroke-miterlimit="10"/>
  <path d="M2.06982 11.92L17.1898 11.26" stroke-miterlimit="10"/>
  <path d="M3 22H16" stroke-miterlimit="10"/>
  <path d="M18.85 15C18.85 15 17 17.01 17 18.24C17 19.26 17.83 20.09 18.85 20.09C19.87 20.09 20.7 19.26 20.7 18.24C20.7 17.01 18.85 15 18.85 15Z"/>
  </svg>

<svg xmlns="http://www.w3.org/2000/svg" width="24" height="24" viewBox="0 0 24 24" fill="none" stroke="currentColor" stroke-width="2" stroke-linecap="round" stroke-linejoin="round">
  <path d="M18.85 15S17 17.01 17 18.24a1 1 0 0 0 3.7 0c0-1.23-1.85-3.24-1.85-3.24" />
  <path d="m2.07 11.92 15.12-.66" />
  <path d="M3 13.99c-1.34-1.34-1.34-2.67 0-4.01L9.68 3.3l7.35 7.35a1 1 0 0 1 0 1.34l-6.02 6.02c-1.32 1.32-2.66 1.32-4-.01z" />
  <path d="M3 22h13" />
  <path d="m8.35 1.95 1.34 1.34" />
</svg>
